symbols/web/brunch_dining/materialsymbolssharp/brunch_dining_wght200fill1_40px.svg

<svg xmlns="http://www.w3.org/2000/svg" height="40" width="40"><path d="M3.833 35.375v-1.667h23.459v1.667Zm0-5.417v-1.666h8.5v-1.834h6.459v1.834h8.5v1.666Zm28.25 5.417V24.75q-1.083-.875-1.916-2.396-.834-1.521-.834-3.354V5.375h6.834V19q0 1.833-.771 3.354-.771 1.521-1.896 2.396v9.208h2.667v1.417ZM30.75 14.333h4V6.792h-4Z"/></svg>

<svg xmlns="http://www.w3.org/2000/svg" height="40" width="40"><path d="M3.833 35.375V33.708H27.292V35.375ZM3.833 29.958V28.292H12.333V26.458H18.792V28.292H27.292V29.958ZM32.083 35.375V24.75Q31 23.875 30.167 22.354Q29.333 20.833 29.333 19V5.375H36.167V19Q36.167 20.833 35.396 22.354Q34.625 23.875 33.5 24.75V33.958H36.167V35.375ZM30.75 14.333H34.75V6.792H30.75Z"/></svg>
